.icons/Gruvbox-Plus-Dark/apps/16/drweb-gui.svg

<svg width="16" height="16" version="1.1" xmlns="http://www.w3.org/2000/svg">
  <defs>
    <style type="text/css" id="current-color-scheme">.ColorScheme-Text { color:#ebdbb2; } .ColorScheme-Highlight { color:#458588; }</style>
  </defs>
  <path class="ColorScheme-Text" fill="currentColor" d="m3.115 1.778 1.778 2.222 0.889-0.444-1.334-1.334 1.334-0.444zm7.111 0 1.334 0.444-1.334 1.334 0.889 0.444 1.778-2.222zm-2.222 0.889c-1.157 3e-3 -2.672 0.635-2.667 2.843l2.667-1.51 2.667 1.51c5e-3 -2.208-1.51-2.84-2.667-2.843zm-6.667 0.889 0.889 2.666v-0.889h1.778l0.444-0.889zm13.33 0-3.111 0.888 0.444 0.889h1.778v0.889zm-6.667 1.333-1.333 0.8 0.177 1.245 0.444-1.156h1.424l0.444 1.156 0.177-1.244-1.333-0.8zm-4.444 1.333-3.556 1.334 1.778 0.888v-0.444l1.333-0.444zm2.222 0-1.778 0.712c0.011 1.452 0.825 2.824 1.644 3.491 0.573 0.456 1.292 0.979 1.644 1.13 0.404 0.151 0.18-0.748 0.267-0.889h0.889c0.088 0.141-0.137 1.041 0.267 0.889 0.353-0.151 1.071-0.673 1.645-1.13 0.819-0.668 1.632-2.038 1.644-3.491l-1.778-0.712-0.444 1.778h-1.157l-0.621-1.778-0.621 1.778h-1.157zm6.666 0 0.445 1.334 1.333 0.444v0.444l1.778-0.888zm-8.888 2.667-2.223 0.889 3.556 4.444zm8.888 0-1.333 5.333 3.556-4.444z"/>
</svg>

<svg xmlns="http://www.w3.org/2000/svg" style="isolation:isolate" width="16" height="16" viewBox="0 0 16 16">
 <defs>
  <style id="current-color-scheme" type="text/css">
   .ColorScheme-Text { color:#ebdbb2; } .ColorScheme-Highlight { color:#458588; }
  </style>
  <linearGradient id="arrongin" x1="0%" x2="0%" y1="0%" y2="100%">
   <stop offset="0%" style="stop-color:#d79921; stop-opacity:1"/>
   <stop offset="100%" style="stop-color:#b57614; stop-opacity:1"/>
  </linearGradient>
  <linearGradient id="aurora" x1="0%" x2="0%" y1="0%" y2="100%">
   <stop offset="0%" style="stop-color:#83a598; stop-opacity:1"/>
   <stop offset="100%" style="stop-color:#b16286; stop-opacity:1"/>
  </linearGradient>
  <linearGradient id="fitdance" x1="0%" x2="0%" y1="0%" y2="100%">
   <stop offset="0%" style="stop-color:#8ec07c; stop-opacity:1"/>
   <stop offset="100%" style="stop-color:#458588; stop-opacity:1"/>
  </linearGradient>
  <linearGradient id="oomox" x1="0%" x2="0%" y1="0%" y2="100%">
   <stop offset="0%" style="stop-color:#458588; stop-opacity:1"/>
   <stop offset="100%" style="stop-color:#928374; stop-opacity:1"/>
  </linearGradient>
  <linearGradient id="rainblue" x1="0%" x2="0%" y1="0%" y2="100%">
   <stop offset="0%" style="stop-color:#b8bb26; stop-opacity:1"/>
   <stop offset="100%" style="stop-color:#076678; stop-opacity:1"/>
  </linearGradient>
  <linearGradient id="sunrise" x1="0%" x2="0%" y1="0%" y2="100%">
   <stop offset="0%" style="stop-color: #fe8019; stop-opacity:1"/>
   <stop offset="100%" style="stop-color: #fabd2f; stop-opacity:1"/>
  </linearGradient>
  <linearGradient id="telinkrin" x1="0%" x2="0%" y1="0%" y2="100%">
   <stop offset="0%" style="stop-color: #83a598; stop-opacity:1"/>
   <stop offset="100%" style="stop-color: #83a598; stop-opacity:1"/>
  </linearGradient>
  <linearGradient id="60spsycho" x1="0%" x2="0%" y1="0%" y2="100%">
   <stop offset="0%" style="stop-color: #fb4934; stop-opacity:1"/>
   <stop offset="25%" style="stop-color: #fabd2f; stop-opacity:1"/>
   <stop offset="50%" style="stop-color: #fe8019; stop-opacity:1"/>
   <stop offset="100%" style="stop-color: #689d6a; stop-opacity:1"/>
  </linearGradient>
  <linearGradient id="90ssummer" x1="0%" x2="0%" y1="0%" y2="100%">
   <stop offset="0%" style="stop-color: #b16286; stop-opacity:1"/>
   <stop offset="20%" style="stop-color: #8ec07c; stop-opacity:1"/>
   <stop offset="50%" style="stop-color: #fabd2f; stop-opacity:1"/>
   <stop offset="100%" style="stop-color: #458588; stop-opacity:1"/>
  </linearGradient>
  <linearGradient id="cyberneon" x1="0%" x2="0%" y1="0%" y2="100%">
    <stop offset="0" style="stop-color:#83a598; stop-opacity:1"/>
    <stop offset="1" style="stop-color:#b16286; stop-opacity:1"/>
  </linearGradient>
  <clipPath id="_clipPath_gECkCFXJHkZhAfIcwIk8qgHbyTNQxBiP">
   <rect width="16" height="16"/>
  </clipPath>
 </defs>
 <g clip-path="url(#_clipPath_gECkCFXJHkZhAfIcwIk8qgHbyTNQxBiP)">
  <rect style="fill:#282828" fill-opacity="0" width="16" height="16"/>
  <path style="fill:currentColor" class="ColorScheme-Text" d="M 3.111 1.778 L 4.889 4 L 5.778 3.556 L 4.444 2.222 L 5.778 1.778 L 3.111 1.778 Z M 10.222 1.778 L 11.556 2.222 L 10.222 3.556 L 11.111 4 L 12.889 1.778 L 10.222 1.778 Z M 8 2.667 C 6.843 2.67 5.328 3.302 5.333 5.51 L 8 4 L 10.667 5.51 C 10.672 3.302 9.157 2.67 8 2.667 L 8 2.667 Z M 1.333 3.556 L 2.222 6.222 L 2.222 5.333 L 4 5.333 L 4.444 4.444 L 1.333 3.556 Z M 14.667 3.556 L 11.556 4.444 L 12 5.333 L 13.778 5.333 L 13.778 6.222 L 14.667 3.556 Z M 8 4.889 L 6.667 5.689 L 6.844 6.934 L 7.288 5.778 L 8.712 5.778 L 9.156 6.934 L 9.333 5.69 L 8 4.89 L 8 4.889 Z M 3.556 6.222 L 0 7.556 L 1.778 8.444 L 1.778 8 L 3.111 7.556 L 3.556 6.222 Z M 5.778 6.222 L 4 6.934 C 4.011 8.386 4.825 9.758 5.644 10.425 C 6.217 10.881 6.936 11.404 7.288 11.555 C 7.692 11.706 7.468 10.807 7.555 10.666 L 8.444 10.666 C 8.532 10.807 8.307 11.707 8.711 11.555 C 9.064 11.404 9.782 10.882 10.356 10.425 C 11.175 9.757 11.988 8.387 12 6.934 L 10.222 6.222 L 9.778 8 L 8.621 8 L 8 6.222 L 7.379 8 L 6.222 8 L 5.778 6.222 L 5.778 6.222 Z M 12.444 6.222 L 12.889 7.556 L 14.222 8 L 14.222 8.444 L 16 7.556 L 12.444 6.222 Z M 3.556 8.889 L 1.333 9.778 L 4.889 14.222 L 3.556 8.889 Z M 12.444 8.889 L 11.111 14.222 L 14.667 9.778 L 12.444 8.889 Z"/>
 </g>
</svg>
